bundle/image/pages/result/explain/img/bankname.svg

<svg width="267" height="200" viewBox="0 0 267 200" fill="none" xmlns="http://www.w3.org/2000/svg">
<path d="M3.38 8.964V10.644H11.584V8.964H3.38ZM3.464 1.488V3.168H11.472V1.488H3.464ZM3.38 12.716V14.396H11.584V12.716H3.38ZM2.064 5.156V6.892H12.508V5.156H2.064ZM4.304 16.496V18.232H9.736V22.908H4.304V24.672H11.584V16.496H4.304ZM3.352 16.496V25.96H5.172V16.496H3.352ZM13.124 2.384V4.008H27.208V2.384H13.124ZM13.852 5.688V7.228H26.788V5.688H13.852ZM12.424 9.048V10.672H27.824V9.048H12.424ZM19.088 0.479999V10.42H21.076V0.479999H19.088ZM14.524 12.324V26.212H16.512V13.92H25.304V12.324H14.524ZM24.128 12.324V24C24.128 24.336 24.044 24.42 23.68 24.448C23.316 24.448 22.168 24.476 20.908 24.42C21.16 24.924 21.44 25.652 21.524 26.156C23.26 26.156 24.436 26.156 25.192 25.876C25.892 25.568 26.116 25.064 26.116 24.028V12.324H24.128ZM15.42 15.936V17.448H25.136V15.936H15.42ZM15.42 19.464V20.976H25.136V19.464H15.42ZM35.328 23.608V25.288H50.756V23.608H35.328ZM34.348 18.596V26.24H36.392V20.276H49.664V26.156H51.82V18.596H34.348ZM32.052 3.588V5.24H53.976V3.588H32.052ZM31.296 10.616V12.268H54.844V10.616H31.296ZM33.76 7.116V8.684H52.24V7.116H33.76ZM30.456 15.264V16.944H55.572V15.264H30.456ZM41.852 4.316V15.992H44.008V4.316H41.852ZM35.916 1.068C36.644 2.02 37.428 3.336 37.708 4.176L39.696 3.504C39.332 2.664 38.576 1.404 37.792 0.507999L35.916 1.068ZM34.684 12.688C35.328 13.528 36.028 14.732 36.28 15.544L38.296 14.928C37.988 14.144 37.288 12.996 36.56 12.156L34.684 12.688ZM47.928 0.451999C47.536 1.376 46.752 2.72 46.164 3.616L48.012 4.064C48.628 3.28 49.412 2.104 50.084 0.927998L47.928 0.451999ZM49.216 12.184C48.824 12.996 48.068 14.228 47.508 15.012L49.384 15.432C50 14.732 50.672 13.696 51.316 12.632L49.216 12.184ZM62.46 2.468V4.484H80.576V2.468H62.46ZM62.46 8.992V10.98H80.548V8.992H62.46ZM62.32 15.684V17.672H80.604V15.684H62.32ZM61.284 2.468V12.604C61.284 16.552 60.976 21.536 57.896 25.008C58.344 25.288 59.184 25.988 59.52 26.408C62.852 22.684 63.356 16.888 63.356 12.632V2.468H61.284ZM79.736 2.468V23.384C79.736 23.916 79.54 24.084 79.008 24.112C78.476 24.112 76.572 24.14 74.584 24.056C74.892 24.616 75.228 25.54 75.312 26.1C77.972 26.128 79.596 26.1 80.548 25.764C81.472 25.4 81.808 24.756 81.808 23.384V2.468H79.736ZM70.076 3.224V25.988H72.204V3.224H70.076Z" fill="black"/>
<path d="M16.0804 64.6002V68.8002H38.8804V64.6002H16.0804ZM24.8804 47.2802L22.9204 50.5202H34.2004L35.1604 47.2802H24.8804ZM29.8804 59.9202V76.5602C29.8804 77.0802 29.6804 77.2002 29.1204 77.2002C28.4804 77.2402 26.4804 77.2402 24.5604 77.1602C25.1604 78.4802 25.7604 80.4402 25.9204 81.8002C28.9204 81.8002 31.0404 81.7202 32.5204 80.9602C34.0804 80.2402 34.4404 78.9202 34.4404 76.6402V59.9202H29.8804ZM25.8404 44.2802C23.5204 47.7602 19.2004 51.4002 14.4404 53.4402C15.3604 54.1202 16.7604 55.5202 17.4404 56.3602C22.3604 53.9202 27.2804 49.8402 30.4804 45.4802L25.8404 44.2802ZM18.0004 71.2002C19.6404 72.9602 21.4004 75.4402 22.0804 77.0802L26.0404 74.7202C25.2404 73.0802 23.3204 70.7602 21.6804 69.0802L18.0004 71.2002ZM22.6004 52.1202C24.6404 53.3602 27.0004 55.2402 28.0404 56.6002L30.5604 54.1602C29.4404 52.8002 27.0004 51.0402 24.9604 49.9202L22.6004 52.1202ZM18.0804 55.0802C20.0004 56.4802 22.2004 58.5602 23.2004 60.0002L26.0404 57.7602C25.0004 56.2802 22.7204 54.3202 20.7604 53.0002L18.0804 55.0802ZM1.60039 64.0402V68.1602H12.2004V64.0402H1.60039ZM10.4404 44.2002V81.7602H14.8804V44.2002H10.4404ZM3.60039 65.7602V68.0402C3.60039 70.9202 3.32039 76.0802 1.16039 79.5602C2.20039 80.0002 3.92039 81.1202 4.68039 81.8402C7.36039 77.7602 7.76039 71.5202 7.76039 68.2002V65.7602H3.60039ZM33.4804 47.2802V47.9602C30.8404 54.8802 23.6004 59.4802 15.7604 61.3602C16.5604 62.2002 17.6404 63.7602 18.1204 64.8002C26.8804 62.2802 34.6404 57.4002 38.0404 48.5202L35.1204 47.1202L34.3204 47.2802H33.4804ZM3.24039 46.0802V59.4402H12.9204V55.1602H7.36039V46.0802H3.24039ZM47.1204 49.2002V53.8802H81.9204V49.2002H47.1204ZM61.7204 44.2002V81.7602H66.7604V44.2002H61.7204ZM62.2804 62.2802C58.9204 68.0402 52.3204 73.4802 45.4004 76.1602C46.4804 77.1202 48.0404 79.0802 48.8004 80.2802C55.9204 77.0002 62.3604 70.8802 66.2804 63.8002L62.2804 62.2802ZM66.5604 62.6002L62.6004 64.1602C66.5204 71.0002 72.8404 77.0402 79.8004 80.2402C80.6004 78.8802 82.1604 76.8802 83.3604 75.8402C76.4804 73.3202 69.9204 68.1202 66.5604 62.6002ZM51.9604 60.8402C53.8004 62.4802 56.3204 64.8002 57.5204 66.2402L60.6804 62.8802C59.4004 61.5202 56.8004 59.3202 55.0004 57.8002L51.9604 60.8402ZM53.5604 54.1202C52.4404 59.0002 50.0004 63.2402 46.4804 65.8002C47.5604 66.5202 49.4004 68.0802 50.2004 68.9602C53.9204 65.8402 56.7604 60.8402 58.2404 55.0002L53.5604 54.1202ZM71.0804 61.0002C73.6404 63.1202 77.3204 66.0802 79.0004 67.8802L82.3204 64.5602C80.4804 62.8402 76.6804 60.0002 74.2004 58.1202L71.0804 61.0002ZM72.4404 54.1202C71.6004 58.1602 69.7204 61.8802 67.0404 64.1602C68.1604 64.6802 70.2004 65.9202 71.1204 66.6802C73.8004 64.0002 76.0004 59.7602 77.0804 54.9602L72.4404 54.1202ZM109.36 52.7202V56.7602H122.92V52.7202H109.36ZM104.44 76.6802L105.76 81.3202C109.28 80.5202 113.76 79.4802 117.92 78.4402L117.4 73.9602C112.72 75.0402 107.8 76.0802 104.44 76.6802ZM109.48 45.6802V49.9202H120.84V59.6402H109.48V63.8402H125.44V45.6802H109.48ZM118.16 62.4402L114.04 63.0402C115.6 71.8002 118.44 78.5202 124.68 81.8802C125.36 80.6002 126.72 78.7602 127.76 77.8802C122.24 75.3202 119.48 69.4402 118.16 62.4402ZM123.8 64.8802C122.28 66.4802 119.68 68.6002 117.88 69.8002L120.52 72.6402C122.4 71.5602 124.96 69.8002 127.04 68.1602L123.8 64.8802ZM107.48 45.6802V78.1602L112 77.3602V45.6802H107.48ZM92.4404 54.1202V58.1202H104.88V54.1202H92.4404ZM90.7204 61.0802V65.1602H105.76V61.0802H90.7204ZM91.0404 67.4402C91.6804 69.6802 92.2804 72.5202 92.4004 74.4402L95.7204 73.5202C95.5204 71.6802 94.8804 68.8402 94.1604 66.6402L91.0404 67.4402ZM90.0804 76.6002L91.0404 80.9202C95.3204 80.2002 101 79.2002 106.28 78.2002L106 74.1602C100.2 75.1202 94.1204 76.0402 90.0804 76.6002ZM102.32 66.2802C102.08 68.2802 101.4 71.2002 100.84 73.0402L103.72 73.8802C104.36 72.2002 105.16 69.5602 105.96 67.1602L102.32 66.2802ZM96.2804 55.8402V78.0402L100.44 77.3202V55.8402H96.2804ZM96.2804 44.2002C94.9204 47.3202 92.4804 51.0802 88.8804 53.9602C89.8004 54.6002 91.1604 56.1602 91.8004 57.1602C96.0004 53.6002 98.6004 49.4402 100.24 46.4002V45.0802H98.8804V44.2002H96.2804ZM96.8804 44.2002V47.6002H97.7204C100.04 49.4802 102.92 52.9602 104.2 55.0802L107.32 51.3602C105.84 49.2402 102.72 46.2402 100.24 44.2002H96.8804ZM150.24 46.4802V51.0402H169.8V46.4802H150.24ZM160.4 58.9202V76.0802C160.4 76.6802 160.16 76.8402 159.4 76.8802C158.68 76.8802 156.04 76.8802 153.76 76.7602C154.4 78.1602 155.04 80.2402 155.2 81.6402C158.8 81.6402 161.32 81.6002 163.04 80.8802C164.8 80.1202 165.32 78.7602 165.32 76.2002V58.9202H160.4ZM148.52 57.5602V62.1202H170.84V57.5602H148.52ZM139.56 62.2802V81.8002H144.36V58.3202L143.76 58.0802L139.56 62.2802ZM144.08 52.9202C141.44 57.4402 137.08 62.0802 133 64.9602C133.96 65.9202 135.6 68.0802 136.28 69.0802C140.56 65.5602 145.48 59.9602 148.64 54.6402L144.08 52.9202ZM142.56 44.2002C140.6 47.0002 136.76 50.6002 133.44 52.7602C134.24 53.7202 135.48 55.6002 136.12 56.6802C139.92 54.0402 144.24 49.8802 147.16 46.0802L142.56 44.2002Z" fill="black"/>
<path d="M103.32 18.7402H266.96" stroke="black" stroke-miterlimit="10"/>
<path d="M0.52002 198.86H266.96" stroke="black" stroke-miterlimit="10"/>
<path d="M31.36 134.88V143.28H76.96V134.88H31.36ZM48.96 100.24L45.04 106.72H67.6L69.52 100.24H48.96ZM58.96 125.52V158.8C58.96 159.84 58.56 160.08 57.44 160.08C56.16 160.16 52.16 160.16 48.32 160C49.52 162.64 50.72 166.56 51.04 169.28C57.04 169.28 61.28 169.12 64.24 167.6C67.36 166.16 68.08 163.52 68.08 158.96V125.52H58.96ZM50.88 94.24C46.24 101.2 37.6 108.48 28.08 112.56C29.92 113.92 32.72 116.72 34.08 118.4C43.92 113.52 53.76 105.36 60.16 96.64L50.88 94.24ZM35.2 148.08C38.48 151.6 42 156.56 43.36 159.84L51.28 155.12C49.68 151.84 45.84 147.2 42.56 143.84L35.2 148.08ZM44.4 109.92C48.48 112.4 53.2 116.16 55.28 118.88L60.32 114C58.08 111.28 53.2 107.76 49.12 105.52L44.4 109.92ZM35.36 115.84C39.2 118.64 43.6 122.8 45.6 125.68L51.28 121.2C49.2 118.24 44.64 114.32 40.72 111.68L35.36 115.84ZM2.4 133.76V142H23.6V133.76H2.4ZM20.08 94.08V169.2H28.96V94.08H20.08ZM6.4 137.2V141.76C6.4 147.52 5.84 157.84 1.52 164.8C3.6 165.68 7.04 167.92 8.56 169.36C13.92 161.2 14.72 148.72 14.72 142.08V137.2H6.4ZM66.16 100.24V101.6C60.88 115.44 46.4 124.64 30.72 128.4C32.32 130.08 34.48 133.2 35.44 135.28C52.96 130.24 68.48 120.48 75.28 102.72L69.44 99.92L67.84 100.24H66.16ZM5.68 97.84V124.56H25.04V116H13.92V97.84H5.68ZM111.36 134.88V143.28H156.96V134.88H111.36ZM128.96 100.24L125.04 106.72H147.6L149.52 100.24H128.96ZM138.96 125.52V158.8C138.96 159.84 138.56 160.08 137.44 160.08C136.16 160.16 132.16 160.16 128.32 160C129.52 162.64 130.72 166.56 131.04 169.28C137.04 169.28 141.28 169.12 144.24 167.6C147.36 166.16 148.08 163.52 148.08 158.96V125.52H138.96ZM130.88 94.24C126.24 101.2 117.6 108.48 108.08 112.56C109.92 113.92 112.72 116.72 114.08 118.4C123.92 113.52 133.76 105.36 140.16 96.64L130.88 94.24ZM115.2 148.08C118.48 151.6 122 156.56 123.36 159.84L131.28 155.12C129.68 151.84 125.84 147.2 122.56 143.84L115.2 148.08ZM124.4 109.92C128.48 112.4 133.2 116.16 135.28 118.88L140.32 114C138.08 111.28 133.2 107.76 129.12 105.52L124.4 109.92ZM115.36 115.84C119.2 118.64 123.6 122.8 125.6 125.68L131.28 121.2C129.2 118.24 124.64 114.32 120.72 111.68L115.36 115.84ZM82.4 133.76V142H103.6V133.76H82.4ZM100.08 94.08V169.2H108.96V94.08H100.08ZM86.4 137.2V141.76C86.4 147.52 85.84 157.84 81.52 164.8C83.6 165.68 87.04 167.92 88.56 169.36C93.92 161.2 94.72 148.72 94.72 142.08V137.2H86.4ZM146.16 100.24V101.6C140.88 115.44 126.4 124.64 110.72 128.4C112.32 130.08 114.48 133.2 115.44 135.28C132.96 130.24 148.48 120.48 155.28 102.72L149.44 99.92L147.84 100.24H146.16ZM85.68 97.84V124.56H105.04V116H93.92V97.84H85.68ZM206.56 122.4V169.2H216.24V122.4H206.56ZM185.52 132.4V141.12H236.96V132.4H185.52ZM218.08 136.24L210.88 138.88C215.84 149.52 224.08 160.32 232.48 166.32C234.08 163.92 237.12 160.48 239.28 158.64C230.96 153.84 222.48 144.96 218.08 136.24ZM205.28 135.52C200.64 144.64 191.76 153.76 182.64 158.48C184.72 160.32 187.76 163.76 189.28 166.08C198.72 160.08 207.6 149.44 212.8 138.16L205.28 135.52ZM199.92 106H223.44V116.72H199.92V106ZM190.8 97.6V125.2H233.04V97.6H190.8ZM180.32 94.24C176.08 105.68 168.88 117.04 161.44 124.24C163.04 126.56 165.68 131.84 166.48 134.08C175.36 125.04 183.92 110.72 189.28 97.12L180.32 94.24ZM172.64 116.4V168.96H181.76V107.36L181.68 107.28L172.64 116.4Z" fill="black"/>
</svg>

<svg width="267" height="200" fill="none" xmlns="http://www.w3.org/2000/svg"><path d="M3.38 8.964v1.68h8.204v-1.68H3.38zm.084-7.476v1.68h8.008v-1.68H3.464zM3.38 12.716v1.68h8.204v-1.68H3.38zm-1.316-7.56v1.736h10.444V5.156H2.064zm2.24 11.34v1.736h5.432v4.676H4.304v1.764h7.28v-8.176h-7.28zm-.952 0v9.464h1.82v-9.464h-1.82zm9.772-14.112v1.624h14.084V2.384H13.124zm.728 3.304v1.54h12.936v-1.54H13.852zm-1.428 3.36v1.624h15.4V9.048h-15.4zM19.088.48v9.94h1.988V.48h-1.988zm-4.564 11.844v13.888h1.988V13.92h8.792v-1.596h-10.78zm9.604 0V24c0 .336-.084.42-.448.448-.364 0-1.512.028-2.772-.028.252.504.532 1.232.616 1.736 1.736 0 2.912 0 3.668-.28.7-.308.924-.812.924-1.848V12.324h-1.988zm-8.708 3.612v1.512h9.716v-1.512H15.42zm0 3.528v1.512h9.716v-1.512H15.42zm19.908 4.144v1.68h15.428v-1.68H35.328zm-.98-5.012v7.644h2.044v-5.964h13.272v5.88h2.156v-7.56H34.348zM32.052 3.588V5.24h21.924V3.588H32.052zm-.756 7.028v1.652h23.548v-1.652H31.296zm2.464-3.5v1.568h18.48V7.116H33.76zm-3.304 8.148v1.68h25.116v-1.68H30.456zM41.852 4.316v11.676h2.156V4.316h-2.156zm-5.936-3.248c.728.952 1.512 2.268 1.792 3.108l1.988-.672c-.364-.84-1.12-2.1-1.904-2.996l-1.876.56zm-1.232 11.62c.644.84 1.344 2.044 1.596 2.856l2.016-.616c-.308-.784-1.008-1.932-1.736-2.772l-1.876.532zM47.928.452c-.392.924-1.176 2.268-1.764 3.164l1.848.448c.616-.784 1.4-1.96 2.072-3.136L47.928.452zm1.288 11.732c-.392.812-1.148 2.044-1.708 2.828l1.876.42c.616-.7 1.288-1.736 1.932-2.8l-2.1-.448zM62.46 2.468v2.016h18.116V2.468H62.46zm0 6.524v1.988h18.088V8.992H62.46zm-.14 6.692v1.988h18.284v-1.988H62.32zM61.284 2.468v10.136c0 3.948-.308 8.932-3.388 12.404.448.28 1.288.98 1.624 1.4 3.332-3.724 3.836-9.52 3.836-13.776V2.468h-2.072zm18.452 0v20.916c0 .532-.196.7-.728.728-.532 0-2.436.028-4.424-.056.308.56.644 1.484.728 2.044 2.66.028 4.284 0 5.236-.336.924-.364 1.26-1.008 1.26-2.38V2.468h-2.072zm-9.66.756v22.764h2.128V3.224h-2.128zM16.08 64.6v4.2h22.8v-4.2h-22.8zm8.8-17.32-1.96 3.24H34.2l.96-3.24H24.88zm5 12.64v16.64c0 .52-.2.64-.76.64-.64.04-2.64.04-4.56-.04.6 1.32 1.2 3.28 1.36 4.64 3 0 5.12-.08 6.6-.84 1.56-.72 1.92-2.04 1.92-4.32V59.92h-4.56zm-4.04-15.64c-2.32 3.48-6.64 7.12-11.4 9.16.92.68 2.32 2.08 3 2.92 4.92-2.44 9.84-6.52 13.04-10.88l-4.64-1.2zM18 71.2c1.64 1.76 3.4 4.24 4.08 5.88l3.96-2.36c-.8-1.64-2.72-3.96-4.36-5.64L18 71.2zm4.6-19.08c2.04 1.24 4.4 3.12 5.44 4.48l2.52-2.44c-1.12-1.36-3.56-3.12-5.6-4.24l-2.36 2.2zm-4.52 2.96C20 56.48 22.2 58.56 23.2 60l2.84-2.24C25 56.28 22.72 54.32 20.76 53l-2.68 2.08zM1.6 64.04v4.12h10.6v-4.12H1.6zm8.84-19.84v37.56h4.44V44.2h-4.44zM3.6 65.76v2.28c0 2.88-.28 8.04-2.44 11.52 1.04.44 2.76 1.56 3.52 2.28 2.68-4.08 3.08-10.32 3.08-13.64v-2.44H3.6zm29.88-18.48v.68c-2.64 6.92-9.88 11.52-17.72 13.4.8.84 1.88 2.4 2.36 3.44 8.76-2.52 16.52-7.4 19.92-16.28l-2.92-1.4-.8.16h-.84zm-30.24-1.2v13.36h9.68v-4.28H7.36v-9.08H3.24zm43.88 3.12v4.68h34.8V49.2h-34.8zm14.6-5v37.56h5.04V44.2h-5.04zm.56 18.08c-3.36 5.76-9.96 11.2-16.88 13.88 1.08.96 2.64 2.92 3.4 4.12 7.12-3.28 13.56-9.4 17.48-16.48l-4-1.52zm4.28.32-3.96 1.56C66.52 71 72.84 77.04 79.8 80.24c.8-1.36 2.36-3.36 3.56-4.4-6.88-2.52-13.44-7.72-16.8-13.24zm-14.6-1.76c1.84 1.64 4.36 3.96 5.56 5.4l3.16-3.36C59.4 61.52 56.8 59.32 55 57.8l-3.04 3.04zm1.6-6.72C52.44 59 50 63.24 46.48 65.8c1.08.72 2.92 2.28 3.72 3.16 3.72-3.12 6.56-8.12 8.04-13.96l-4.68-.88zM71.08 61c2.56 2.12 6.24 5.08 7.92 6.88l3.32-3.32c-1.84-1.72-5.64-4.56-8.12-6.44L71.08 61zm1.36-6.88c-.84 4.04-2.72 7.76-5.4 10.04 1.12.52 3.16 1.76 4.08 2.52C73.8 64 76 59.76 77.08 54.96l-4.64-.84zm36.92-1.4v4.04h13.56v-4.04h-13.56zm-4.92 23.96 1.32 4.64c3.52-.8 8-1.84 12.16-2.88l-.52-4.48c-4.68 1.08-9.6 2.12-12.96 2.72zm5.04-31v4.24h11.36v9.72h-11.36v4.2h15.96V45.68h-15.96zm8.68 16.76-4.12.6c1.56 8.76 4.4 15.48 10.64 18.84.68-1.28 2.04-3.12 3.08-4-5.52-2.56-8.28-8.44-9.6-15.44zm5.64 2.44c-1.52 1.6-4.12 3.72-5.92 4.92l2.64 2.84c1.88-1.08 4.44-2.84 6.52-4.48l-3.24-3.28zm-16.32-19.2v32.48l4.52-.8V45.68h-4.52zm-15.04 8.44v4h12.44v-4H92.44zm-1.72 6.96v4.08h15.04v-4.08H90.72zm.32 6.36c.64 2.24 1.24 5.08 1.36 7l3.32-.92c-.2-1.84-.84-4.68-1.56-6.88l-3.12.8zm-.96 9.16.96 4.32c4.28-.72 9.96-1.72 15.24-2.72l-.28-4.04c-5.8.96-11.88 1.88-15.92 2.44zm12.24-10.32c-.24 2-.92 4.92-1.48 6.76l2.88.84c.64-1.68 1.44-4.32 2.24-6.72l-3.64-.88zm-6.04-10.44v22.2l4.16-.72V55.84h-4.16zm0-11.64c-1.36 3.12-3.8 6.88-7.4 9.76.92.64 2.28 2.2 2.92 3.2 4.2-3.56 6.8-7.72 8.44-10.76v-1.32h-1.36v-.88h-2.6zm.6 0v3.4h.84c2.32 1.88 5.2 5.36 6.48 7.48l3.12-3.72c-1.48-2.12-4.6-5.12-7.08-7.16h-3.36zm53.36 2.28v4.56h19.56v-4.56h-19.56zm10.16 12.44v17.16c0 .6-.24.76-1 .8-.72 0-3.36 0-5.64-.12.64 1.4 1.28 3.48 1.44 4.88 3.6 0 6.12-.04 7.84-.76 1.76-.76 2.28-2.12 2.28-4.68V58.92h-4.92zm-11.88-1.36v4.56h22.32v-4.56h-22.32zm-8.96 4.72V81.8h4.8V58.32l-.6-.24-4.2 4.2zm4.52-9.36c-2.64 4.52-7 9.16-11.08 12.04.96.96 2.6 3.12 3.28 4.12 4.28-3.52 9.2-9.12 12.36-14.44l-4.56-1.72zm-1.52-8.72c-1.96 2.8-5.8 6.4-9.12 8.56.8.96 2.04 2.84 2.68 3.92 3.8-2.64 8.12-6.8 11.04-10.6l-4.6-1.88z" fill="#000"/><path d="M103.32 18.74h163.64M.52 198.86h266.44" stroke="#000" stroke-miterlimit="10"/><path d="M31.36 134.88v8.4h45.6v-8.4h-45.6zm17.6-34.64-3.92 6.48H67.6l1.92-6.48H48.96zm10 25.28v33.28c0 1.04-.4 1.28-1.52 1.28-1.28.08-5.28.08-9.12-.08 1.2 2.64 2.4 6.56 2.72 9.28 6 0 10.24-.16 13.2-1.68 3.12-1.44 3.84-4.08 3.84-8.64v-33.44h-9.12zm-8.08-31.28c-4.64 6.96-13.28 14.24-22.8 18.32 1.84 1.36 4.64 4.16 6 5.84 9.84-4.88 19.68-13.04 26.08-21.76l-9.28-2.4zM35.2 148.08c3.28 3.52 6.8 8.48 8.16 11.76l7.92-4.72c-1.6-3.28-5.44-7.92-8.72-11.28l-7.36 4.24zm9.2-38.16c4.08 2.48 8.8 6.24 10.88 8.96l5.04-4.88c-2.24-2.72-7.12-6.24-11.2-8.48l-4.72 4.4zm-9.04 5.92c3.84 2.8 8.24 6.96 10.24 9.84l5.68-4.48c-2.08-2.96-6.64-6.88-10.56-9.52l-5.36 4.16zM2.4 133.76V142h21.2v-8.24H2.4zm17.68-39.68v75.12h8.88V94.08h-8.88zM6.4 137.2v4.56c0 5.76-.56 16.08-4.88 23.04 2.08.88 5.52 3.12 7.04 4.56 5.36-8.16 6.16-20.64 6.16-27.28v-4.88H6.4zm59.76-36.96v1.36c-5.28 13.84-19.76 23.04-35.44 26.8 1.6 1.68 3.76 4.8 4.72 6.88 17.52-5.04 33.04-14.8 39.84-32.56l-5.84-2.8-1.6.32h-1.68zm-60.48-2.4v26.72h19.36V116H13.92V97.84H5.68zm105.68 37.04v8.4h45.6v-8.4h-45.6zm17.6-34.64-3.92 6.48h22.56l1.92-6.48h-20.56zm10 25.28v33.28c0 1.04-.4 1.28-1.52 1.28-1.28.08-5.28.08-9.12-.08 1.2 2.64 2.4 6.56 2.72 9.28 6 0 10.24-.16 13.2-1.68 3.12-1.44 3.84-4.08 3.84-8.64v-33.44h-9.12zm-8.08-31.28c-4.64 6.96-13.28 14.24-22.8 18.32 1.84 1.36 4.64 4.16 6 5.84 9.84-4.88 19.68-13.04 26.08-21.76l-9.28-2.4zm-15.68 53.84c3.28 3.52 6.8 8.48 8.16 11.76l7.92-4.72c-1.6-3.28-5.44-7.92-8.72-11.28l-7.36 4.24zm9.2-38.16c4.08 2.48 8.8 6.24 10.88 8.96l5.04-4.88c-2.24-2.72-7.12-6.24-11.2-8.48l-4.72 4.4zm-9.04 5.92c3.84 2.8 8.24 6.96 10.24 9.84l5.68-4.48c-2.08-2.96-6.64-6.88-10.56-9.52l-5.36 4.16zM82.4 133.76V142h21.2v-8.24H82.4zm17.68-39.68v75.12h8.88V94.08h-8.88zM86.4 137.2v4.56c0 5.76-.56 16.08-4.88 23.04 2.08.88 5.52 3.12 7.04 4.56 5.36-8.16 6.16-20.64 6.16-27.28v-4.88H86.4zm59.76-36.96v1.36c-5.28 13.84-19.76 23.04-35.44 26.8 1.6 1.68 3.76 4.8 4.72 6.88 17.52-5.04 33.04-14.8 39.84-32.56l-5.84-2.8-1.6.32h-1.68zm-60.48-2.4v26.72h19.36V116H93.92V97.84h-8.24zm120.88 24.56v46.8h9.68v-46.8h-9.68zm-21.04 10v8.72h51.44v-8.72h-51.44zm32.56 3.84-7.2 2.64c4.96 10.64 13.2 21.44 21.6 27.44 1.6-2.4 4.64-5.84 6.8-7.68-8.32-4.8-16.8-13.68-21.2-22.4zm-12.8-.72c-4.64 9.12-13.52 18.24-22.64 22.96 2.08 1.84 5.12 5.28 6.64 7.6 9.44-6 18.32-16.64 23.52-27.92l-7.52-2.64zM199.92 106h23.52v10.72h-23.52V106zm-9.12-8.4v27.6h42.24V97.6H190.8zm-10.48-3.36c-4.24 11.44-11.44 22.8-18.88 30 1.6 2.32 4.24 7.6 5.04 9.84 8.88-9.04 17.44-23.36 22.8-36.96l-8.96-2.88zm-7.68 22.16v52.56h9.12v-61.6l-.08-.08-9.04 9.12z" fill="#000"/></svg>
